X:2066
L:1/4
Q:1/4=200
M:3/4
K:C
 F2 F | F2 E | G2 G | E2 z | D2 D | D2 C | E2 D | C3 |:"C" C2 G | G2 E |"F" F2 A |"G7" G3 | 
"C" C2 D |"G7" E2 D |"F" F E"G" D |"C" C3 :|"C" c2 c | c2 G |"Am" A2 B | c B A |"G7" G2 F | 
"C" E D C |"F" F E D |"C" C3 |:"F" F2 F | F2 E |"G7" G2 G |"C" E2 z |"Dm" D2 D | D2 C |"C" E2 D | 
"C" C3 :|

